communes/5627.svg

<?xml version="1.0" encoding="UTF-8" standalone="no"?>
<!-- Created with Inkscape (http://www.inkscape.org/) -->
<svg
   xmlns:dc="http://purl.org/dc/elements/1.1/"
   xmlns:cc="http://creativecommons.org/ns#"
   xmlns:rdf="http://www.w3.org/1999/02/22-rdf-syntax-ns#"
   xmlns:svg="http://www.w3.org/2000/svg"
   xmlns="http://www.w3.org/2000/svg"
   xmlns:xlink="http://www.w3.org/1999/xlink"
   xmlns:sodipodi="http://sodipodi.sourceforge.net/DTD/sodipodi-0.dtd"
   xmlns:inkscape="http://www.inkscape.org/namespaces/inkscape"
   width="500"
   height="627.35999"
   id="svg2"
   sodipodi:version="0.32"
   inkscape:version="0.46"
   version="1.0"
   sodipodi:docname="Wappen Chavannes-près-Renens.svg"
   inkscape:output_extension="org.inkscape.output.svg.inkscape">
  <defs
     id="defs4">
    <inkscape:perspective
       sodipodi:type="inkscape:persp3d"
       inkscape:vp_x="0 : 526.18109 : 1"
       inkscape:vp_y="0 : 1000 : 0"
       inkscape:vp_z="744.09448 : 526.18109 : 1"
       inkscape:persp3d-origin="372.04724 : 350.78739 : 1"
       id="perspective10" />
    <radialGradient
       r="300"
       fy="579.93323"
       fx="858.04236"
       cy="579.93323"
       cx="858.04236"
       gradientTransform="matrix(1.21503,0,0,1.26667,-1489.2634,-625.3411)"
       gradientUnits="userSpaceOnUse"
       id="radialGradient2575"
       xlink:href="#linearGradient2893"
       inkscape:collect="always" />
    <radialGradient
       r="300"
       fy="579.93323"
       fx="858.04236"
       cy="579.93323"
       cx="858.04236"
       gradientTransform="matrix(1.21503,0,0,1.26667,-839.192,-490.489)"
       gradientUnits="userSpaceOnUse"
       id="radialGradient2572"
       xlink:href="#linearGradient2893"
       inkscape:collect="always" />
    <inkscape:perspective
       sodipodi:type="inkscape:persp3d"
       inkscape:vp_x="0 : 381.5 : 1"
       inkscape:vp_y="0 : 1000 : 0"
       inkscape:vp_z="603 : 381.5 : 1"
       inkscape:persp3d-origin="301.5 : 254.33333 : 1"
       id="perspective28" />
    <linearGradient
       id="linearGradient2893">
      <stop
         style="stop-color: rgb(255, 255, 255); stop-opacity: 0.313726;"
         offset="0"
         id="stop2895" />
      <stop
         id="stop2897"
         offset="0.19"
         style="stop-color: rgb(255, 255, 255); stop-opacity: 0.25098;" />
      <stop
         style="stop-color: rgb(107, 107, 107); stop-opacity: 0.12549;"
         offset="0.60000002"
         id="stop2901" />
      <stop
         style="stop-color: rgb(0, 0, 0); stop-opacity: 0.12549;"
         offset="1"
         id="stop2899" />
    </linearGradient>
    <linearGradient
       id="linearGradient2955">
      <stop
         style="stop-color: white; stop-opacity: 0;"
         offset="0"
         id="stop2965" />
      <stop
         style="stop-color: black; stop-opacity: 0.645833;"
         offset="1"
         id="stop2959" />
    </linearGradient>
    <radialGradient
       inkscape:collect="always"
       xlink:href="#linearGradient2893"
       id="radialGradient3236"
       gradientUnits="userSpaceOnUse"
       gradientTransform="matrix(1.21503,0,0,1.26667,-839.192,-490.489)"
       cx="858.04236"
       cy="579.93323"
       fx="858.04236"
       fy="579.93323"
       r="300" />
    <inkscape:perspective
       id="perspective2556"
       inkscape:persp3d-origin="297.63751 : 280.63 : 1"
       inkscape:vp_z="595.27502 : 420.94501 : 1"
       inkscape:vp_y="0 : 1000 : 0"
       inkscape:vp_x="0 : 420.94501 : 1"
       sodipodi:type="inkscape:persp3d" />
    <inkscape:perspective
       id="perspective2497"
       inkscape:persp3d-origin="372.04724 : 350.78739 : 1"
       inkscape:vp_z="744.09448 : 526.18109 : 1"
       inkscape:vp_y="0 : 1000 : 0"
       inkscape:vp_x="0 : 526.18109 : 1"
       sodipodi:type="inkscape:persp3d" />
    <inkscape:perspective
       sodipodi:type="inkscape:persp3d"
       inkscape:vp_x="0 : 420.94501 : 1"
       inkscape:vp_y="0 : 1000 : 0"
       inkscape:vp_z="595.27502 : 420.94501 : 1"
       inkscape:persp3d-origin="297.63751 : 280.63 : 1"
       id="perspective2544" />
    <radialGradient
       r="300"
       fy="579.93323"
       fx="858.04236"
       cy="579.93323"
       cx="858.04236"
       gradientTransform="matrix(1.21503,0,0,1.26667,-839.192,-490.489)"
       gradientUnits="userSpaceOnUse"
       id="radialGradient2654"
       xlink:href="#linearGradient2893"
       inkscape:collect="always" />
    <linearGradient
       id="linearGradient2648">
      <stop
         id="stop2650"
         offset="0"
         style="stop-color: white; stop-opacity: 0;" />
      <stop
         id="stop2652"
         offset="1"
         style="stop-color: black; stop-opacity: 0.645833;" />
    </linearGradient>
    <linearGradient
       id="linearGradient2638">
      <stop
         id="stop2640"
         offset="0"
         style="stop-color: rgb(255, 255, 255); stop-opacity: 0.313726;" />
      <stop
         style="stop-color: rgb(255, 255, 255); stop-opacity: 0.25098;"
         offset="0.19"
         id="stop2642" />
      <stop
         id="stop2644"
         offset="0.60000002"
         style="stop-color: rgb(107, 107, 107); stop-opacity: 0.12549;" />
      <stop
         id="stop2646"
         offset="1"
         style="stop-color: rgb(0, 0, 0); stop-opacity: 0.12549;" />
    </linearGradient>
    <inkscape:perspective
       id="perspective2636"
       inkscape:persp3d-origin="301.5 : 254.33333 : 1"
       inkscape:vp_z="603 : 381.5 : 1"
       inkscape:vp_y="0 : 1000 : 0"
       inkscape:vp_x="0 : 381.5 : 1"
       sodipodi:type="inkscape:persp3d" />
    <radialGradient
       inkscape:collect="always"
       xlink:href="#linearGradient2893"
       id="radialGradient2703"
       gradientUnits="userSpaceOnUse"
       gradientTransform="matrix(1.21503,0,0,1.26667,-839.192,-490.489)"
       cx="858.04236"
       cy="579.93323"
       fx="858.04236"
       fy="579.93323"
       r="300" />
    <radialGradient
       inkscape:collect="always"
       xlink:href="#linearGradient2893"
       id="radialGradient2706"
       gradientUnits="userSpaceOnUse"
       gradientTransform="matrix(1.21503,0,0,1.26667,-1497.8349,-616.76967)"
       cx="858.04236"
       cy="579.93323"
       fx="858.04236"
       fy="579.93323"
       r="300" />
  </defs>
  <sodipodi:namedview
     id="base"
     pagecolor="#ffffff"
     bordercolor="#666666"
     borderopacity="1.0"
     inkscape:pageopacity="0.0"
     inkscape:pageshadow="2"
     inkscape:zoom="0.35"
     inkscape:cx="8.5714286"
     inkscape:cy="520"
     inkscape:document-units="px"
     inkscape:current-layer="layer1"
     showgrid="false"
     inkscape:window-width="1280"
     inkscape:window-height="750"
     inkscape:window-x="-8"
     inkscape:window-y="-8" />
  <metadata
     id="metadata7">
    <rdf:RDF>
      <cc:Work
         rdf:about="">
        <dc:format>image/svg+xml</dc:format>
        <dc:type
           rdf:resource="http://purl.org/dc/dcmitype/StillImage" />
      </cc:Work>
    </rdf:RDF>
  </metadata>
  <g
     inkscape:label="Ebene 1"
     inkscape:groupmode="layer"
     id="layer1"
     transform="translate(658.6429,-29.356164)">
    <g
       id="g2747"
       transform="matrix(0.7960199,0,0,0.7960199,-124.35007,139.87649)">
      <path
         id="path1899"
         d="M -657.14286,-124.78069 L -657.14286,334.08723 C -657.14286,500.39783 -522.8283,635.21933 -357.14287,635.21933 C -191.45743,635.21933 -57.14286,500.39783 -57.14286,334.08723 L -57.14286,-124.78069 L -657.14286,-124.78069 z"
         style="fill:#e20909;fill-opacity:1" />
      <g
         id="g2733">
        <rect
           style="fill:#ffffff"
           x="-657.14288"
           y="-124.78067"
           width="600"
           height="365.5"
           id="rect2505" />
        <line
           style="fill:none;stroke:#000000;stroke-width:3"
           x1="-657.14288"
           y1="240.71936"
           x2="-57.143898"
           y2="240.71936"
           id="line2509" />
        <path
           id="path2513"
           d="M -357.14386,154.78633 C -369.08386,154.78633 -380.78486,155.77633 -392.16886,157.65533 L -382.65386,205.49033 C -374.35486,204.15733 -365.83386,203.45233 -357.14286,203.45233 C -348.45186,203.45233 -339.93186,204.15733 -331.63186,205.49033 L -322.11686,157.65533 C -333.50286,155.77633 -345.20286,154.78633 -357.14386,154.78633 z M -464.11186,183.63033 L -436.65086,224.72833 C -422.04586,216.22833 -405.83486,209.99833 -388.56186,206.54933 L -398.07786,158.70833 C -421.84186,163.32533 -444.11286,171.88733 -464.11186,183.63033 z M -316.20986,158.70833 L -325.72686,206.54933 C -308.45386,209.99833 -292.24286,216.22833 -277.63686,224.72833 L -250.17586,183.63033 C -270.17486,171.88733 -292.44586,163.32533 -316.20986,158.70833 z M -522.42786,235.07133 L -480.48286,263.09833 C -469.85286,249.30833 -456.74286,237.35933 -441.77886,227.85333 L -469.24386,186.74833 C -489.87986,199.68733 -507.91286,216.08533 -522.42786,235.07133 z M -556.43186,306.42033 L -506.18886,316.41333 C -501.93786,298.82933 -494.33486,282.45233 -484.05686,267.92633 L -526.00686,239.89633 C -540.24486,259.75433 -550.71186,282.24133 -556.43186,306.42033 z M -245.04386,186.74833 L -272.50986,227.85333 C -257.54586,237.35933 -244.43486,249.30833 -233.80586,263.09833 L -191.85986,235.07133 C -206.37386,216.08433 -224.40786,199.68733 -245.04386,186.74833 z M -561.41186,349.11933 L -510.07886,349.11933 C -510.07886,339.95033 -509.17486,330.98033 -507.46586,322.27733 L -557.71486,312.28233 C -560.13085,324.21433 -561.41186,336.52633 -561.41186,349.11933 z M -156.57386,312.28233 L -206.82286,322.27733 C -205.11286,330.98033 -204.20986,339.95033 -204.20986,349.11933 L -152.87686,349.11933 C -152.87586,336.52633 -154.15786,324.21433 -156.57386,312.28233 z M -188.27986,239.89633 L -230.22986,267.92633 C -219.95286,282.45233 -212.34886,298.82933 -208.09786,316.41333 L -157.85586,306.42033 C -163.57686,282.24133 -174.04286,259.75433 -188.27986,239.89633 z" />
        <path
           id="path2515"
           d="M -152.87586,349.11933 L -129.87586,349.11933 C -129.87586,229.08933 -231.62686,131.78633 -357.14386,131.78633 C -482.66086,131.78633 -584.41186,229.08933 -584.41186,349.11933 L -571.87586,349.11933 L -561.41186,349.11933 C -561.41186,336.52633 -560.13085,324.21433 -557.71486,312.28233 L -507.46586,322.27733 C -509.17486,330.98033 -510.07886,339.95033 -510.07886,349.11933 L -487.07886,349.11933 C -487.07886,281.37233 -428.90486,226.45233 -357.14386,226.45233 C -285.38286,226.45233 -227.20886,281.37133 -227.20886,349.11933 L -204.20886,349.11933 C -204.20886,339.95033 -205.11186,330.98033 -206.82186,322.27733 L -156.57286,312.28233 C -154.15786,324.21433 -152.87586,336.52633 -152.87586,349.11933 z M -250.17586,183.63033 L -277.63686,224.72833 C -292.24186,216.22833 -308.45286,209.99833 -325.72686,206.54933 L -316.20986,158.70833 C -292.44586,163.32533 -270.17486,171.88733 -250.17586,183.63033 z M -398.07686,158.70833 L -388.56086,206.54933 C -405.83386,209.99833 -422.04486,216.22833 -436.64986,224.72833 L -464.11086,183.63033 C -444.11286,171.88733 -421.84186,163.32533 -398.07686,158.70833 z M -506.18986,316.41333 L -556.43286,306.42033 C -550.71286,282.24133 -540.24486,259.75433 -526.00886,239.89633 L -484.05886,267.92633 C -494.33486,282.45233 -501.93786,298.82933 -506.18986,316.41333 z M -480.48286,263.09833 L -522.42786,235.07133 C -507.91286,216.08533 -489.87986,199.68733 -469.24386,186.74933 L -441.77886,227.85433 C -456.74286,237.36033 -469.85286,249.30833 -480.48286,263.09833 z M -382.65486,205.49033 L -392.16986,157.65533 C -380.78586,155.77633 -369.08486,154.78633 -357.14486,154.78633 C -345.20486,154.78633 -333.50386,155.77633 -322.11986,157.65533 L -331.63486,205.49033 C -339.93486,204.15733 -348.45386,203.45233 -357.14586,203.45233 C -365.83486,203.45233 -374.35486,204.15733 -382.65486,205.49033 z M -272.50986,227.85333 L -245.04386,186.74833 C -224.40686,199.68633 -206.37386,216.08433 -191.85886,235.07133 L -233.80486,263.09833 C -244.43486,249.30833 -257.54586,237.35933 -272.50986,227.85333 z M -208.09786,316.41333 C -212.34886,298.82933 -219.95186,282.45233 -230.22986,267.92633 L -188.27986,239.89633 C -174.04386,259.75433 -163.57686,282.24133 -157.85586,306.42033 L -208.09786,316.41333 z"
           style="fill:#ffffff;stroke:#000000;stroke-width:3" />
        <line
           id="line2517"
           y2="349.11935"
           x2="-152.87585"
           y1="349.11935"
           x1="-204.20886"
           style="fill:none;stroke:#000000;stroke-width:3" />
        <line
           id="line2519"
           y2="349.11935"
           x2="-510.07785"
           y1="349.11935"
           x1="-561.41089"
           style="fill:none;stroke:#000000;stroke-width:3" />
        <path
           id="path2523"
           d="M -280.70486,-65.90867 C -315.93886,-65.90867 -323.97086,-45.18167 -325.52486,-41.29567 C -327.07886,-37.40967 -331.22486,-35.59567 -336.92386,-35.59567 L -340.87486,-35.59567 C -346.17786,-45.04067 -359.98186,-57.35867 -359.98186,-57.35867 C -362.56886,-59.94667 -373.39386,-48.06067 -373.41886,-45.33367 C -377.33486,-46.34767 -378.95886,-49.39167 -385.37086,-55.80367 C -399.23186,-69.66467 -416.46086,-69.01667 -436.40986,-64.35367 C -456.35886,-59.68967 -464.64986,-46.21767 -482.00786,-46.21767 C -467.36986,-31.57967 -444.95986,-12.27867 -422.41986,-12.27867 C -399.87986,-12.27867 -380.70886,-35.59567 -377.08086,-39.22267 C -375.31186,-40.99167 -373.48586,-41.89367 -372.07486,-42.35867 C -370.00286,-39.42867 -365.96486,-35.61967 -363.09086,-32.74667 C -359.07486,-28.73067 -358.42786,-25.23267 -369.04986,-18.23767 C -398.97086,1.46633 -441.72086,46.14333 -441.72086,46.14333 L -436.66886,51.19533 C -399.23186,13.75833 -360.49986,-10.20567 -360.49986,-10.20567 C -364.79986,-2.82267 -366.19986,18.03433 -366.19986,30.72933 C -366.19986,43.42433 -364.38586,57.67333 -364.38586,57.67333 L -358.16886,57.67333 C -360.13686,32.93133 -358.16886,26.06633 -358.16886,13.11133 C -358.16886,0.15733 -355.05986,-1.65567 -350.39686,-6.31967 C -349.34586,-7.37067 -348.36386,-8.38367 -347.43486,-9.37467 C -345.53386,-7.89167 -342.86986,-5.26567 -339.25586,-0.61967 C -330.18886,11.03833 -305.31686,37.72433 -278.63186,50.41933 L -273.96786,39.27833 C -273.96786,39.27833 -302.59586,25.93633 -326.56086,1.97133 C -335.73386,-7.20167 -340.56186,-11.40267 -342.20886,-15.67867 C -338.75186,-20.65867 -337.43986,-25.28167 -338.85786,-30.66567 C -334.60686,-33.44467 -329.11786,-32.97067 -328.11486,-31.96767 C -324.48786,-28.34067 -300.13486,-19.27267 -280.70386,-19.27267 C -261.27286,-19.27267 -237.43686,-33.26267 -231.99686,-40.77567 C -226.55686,-48.28867 -221.37486,-51.39767 -221.37486,-51.39767 C -231.73986,-54.25067 -245.47086,-65.90867 -280.70486,-65.90867 z"
           style="fill:#5ab532;stroke:#000000;stroke-width:3" />
        <path
           style="fill:none;stroke:#000000;stroke-width:3"
           d="M -450.22886,-43.10967 C -450.22886,-43.10967 -431.22986,-38.96467 -410.84886,-38.96467 C -394.69986,-38.96467 -388.48086,-42.35967 -382.26386,-42.35967"
           id="path2527" />
        <path
           style="fill:none;stroke:#000000;stroke-width:3"
           d="M -248.32086,-44.92367 C -248.32086,-44.92367 -270.86086,-47.77367 -289.51386,-44.92367 C -308.16686,-42.07367 -315.68086,-39.74267 -315.68086,-39.74267"
           id="path2529" />
        <path
           style="fill:#e20909;stroke:#000000;stroke-width:3"
           d="M -361.62386,45.15033 C -364.19286,45.15033 -370.25986,39.96833 -377.16886,39.96833 C -384.07686,39.96833 -399.62186,47.39433 -399.62186,70.88533 C -399.62186,94.37533 -383.55886,108.36533 -365.25086,108.36533 C -346.94286,108.36533 -324.48886,88.84833 -324.48886,67.60333 C -324.48886,46.35833 -340.63886,40.91833 -349.79286,40.91833 C -355.42386,40.91833 -357.99586,45.15033 -361.62386,45.15033 z"
           id="path2533" />
        <path
           style="fill:#e20909;stroke:#000000;stroke-width:3"
           d="M -431.48886,40.31333 C -433.39786,38.59433 -434.43986,30.68333 -439.57386,26.06133 C -444.70786,21.43833 -461.22886,16.55633 -476.94686,34.01233 C -492.66486,51.46833 -490.08886,72.61433 -476.48386,84.86433 C -462.87886,97.11433 -433.13286,97.63533 -418.91786,81.84733 C -404.70186,66.05933 -413.06386,51.21033 -419.86686,45.08533 C -424.04986,41.31733 -428.79286,42.74033 -431.48886,40.31333 z"
           id="path2535" />
        <path
           style="fill:#e20909;stroke:#000000;stroke-width:3"
           d="M -291.32686,38.75833 C -292.61086,40.98333 -300.13286,43.64633 -303.58686,49.62933 C -307.04086,55.61233 -308.38286,72.78733 -288.03886,84.53233 C -267.69586,96.27733 -247.54886,89.36233 -238.39486,73.50733 C -229.23986,57.65233 -234.91586,28.44733 -253.31386,17.82533 C -271.71186,7.20333 -284.49886,18.46933 -289.07586,26.39633 C -291.89186,31.27433 -289.51386,35.61733 -291.32686,38.75833 z"
           id="path2537" />
      </g>
      <path
         style="fill:none;fill-opacity:1;stroke:#000000;stroke-width:3;stroke-miterlimit:4;stroke-dasharray:none;stroke-opacity:1"
         d="M -657.14286,-124.78067 L -657.14286,334.08727 C -657.14286,500.39787 -522.82832,635.21933 -357.14293,635.21933 C -191.45746,635.21933 -57.14286,500.39787 -57.14286,334.08727 L -57.14286,-124.78067 L -657.14286,-124.78067 z"
         id="path3239" />
    </g>
  </g>
</svg>

<?xml version="1.0" encoding="UTF-8"?>
<svg version="1.0" viewBox="0 0 500 627.36" xmlns="http://www.w3.org/2000/svg" xmlns:cc="http://creativecommons.org/ns#" xmlns:dc="http://purl.org/dc/elements/1.1/" xmlns:rdf="http://www.w3.org/1999/02/22-rdf-syntax-ns#" xmlns:xlink="http://www.w3.org/1999/xlink">
<metadata>
<rdf:RDF>
<cc:Work rdf:about="">
<dc:format>image/svg+xml</dc:format>
<dc:type rdf:resource="http://purl.org/dc/dcmitype/StillImage"/>
</cc:Work>
</rdf:RDF>
</metadata>
<g transform="translate(658.64 -29.356)">
<g transform="matrix(.79602 0 0 .79602 -124.35 139.88)">
<path d="m-657.14-124.78v458.87c0 166.31 134.31 301.13 300 301.13 165.69 0 300-134.82 300-301.13v-458.87h-600z" fill="#e20909"/>
<rect x="-657.14" y="-124.78" width="600" height="365.5" fill="#fff"/>
<line x1="-657.14" x2="-57.144" y1="240.72" y2="240.72" fill="none" stroke="#000" stroke-width="3"/>
<path d="m-357.14 154.79c-11.94 0-23.641 0.99-35.025 2.869l9.515 47.835c8.299-1.333 16.82-2.038 25.511-2.038s17.211 0.705 25.511 2.038l9.515-47.835c-11.386-1.879-23.086-2.869-35.027-2.869zm-106.97 28.844 27.461 41.098c14.605-8.5 30.816-14.73 48.089-18.179l-9.516-47.841c-23.764 4.617-46.035 13.179-66.034 24.922zm147.9-24.922-9.517 47.841c17.273 3.449 33.484 9.679 48.09 18.179l27.461-41.098c-19.999-11.743-42.27-20.305-66.034-24.922zm-206.22 76.363 41.945 28.027c10.63-13.79 23.74-25.739 38.704-35.245l-27.465-41.105c-20.636 12.939-38.669 29.337-53.184 48.323zm-34.004 71.349 50.243 9.993c4.251-17.584 11.854-33.961 22.132-48.487l-41.95-28.03c-14.238 19.858-24.705 42.345-30.425 66.524zm311.39-119.67-27.466 41.105c14.964 9.506 28.075 21.455 38.704 35.245l41.946-28.027c-14.514-18.987-32.548-35.384-53.184-48.323zm-316.37 162.37h51.333c0-9.169 0.904-18.139 2.613-26.842l-50.249-9.995c-2.416 11.932-3.697 24.244-3.697 36.837zm404.84-36.837-50.249 9.995c1.71 8.703 2.613 17.673 2.613 26.842h51.333c1e-3 -12.593-1.281-24.905-3.697-36.837zm-31.706-72.386-41.95 28.03c10.277 14.526 17.881 30.903 22.132 48.487l50.242-9.993c-5.721-24.179-16.187-46.666-30.424-66.524z"/>
<path d="m-152.88 349.12h23c0-120.03-101.75-217.33-227.27-217.33s-227.27 97.303-227.27 217.33h12.536 10.464c0-12.593 1.281-24.905 3.697-36.837l50.249 9.995c-1.709 8.703-2.613 17.673-2.613 26.842h23c0-67.747 58.174-122.67 129.94-122.67s129.94 54.919 129.94 122.67h23c0-9.169-0.903-18.139-2.613-26.842l50.249-9.995c2.415 11.932 3.697 24.244 3.697 36.837zm-97.3-165.49-27.461 41.098c-14.605-8.5-30.816-14.73-48.09-18.179l9.517-47.841c23.764 4.617 46.035 13.179 66.034 24.922zm-147.9-24.922 9.516 47.841c-17.273 3.449-33.484 9.679-48.089 18.179l-27.461-41.098c19.998-11.743 42.269-20.305 66.034-24.922zm-108.11 157.7-50.243-9.993c5.72-24.179 16.188-46.666 30.424-66.524l41.95 28.03c-10.276 14.526-17.879 30.903-22.131 48.487zm25.707-53.315-41.945-28.027c14.515-18.986 32.548-35.384 53.184-48.322l27.465 41.105c-14.964 9.506-28.074 21.454-38.704 35.244zm97.828-57.608-9.515-47.835c11.384-1.879 23.085-2.869 35.025-2.869s23.641 0.99 35.025 2.869l-9.515 47.835c-8.3-1.333-16.819-2.038-25.511-2.038-8.689 0-17.209 0.705-25.509 2.038zm110.14 22.363 27.466-41.105c20.637 12.938 38.67 29.336 53.185 48.323l-41.946 28.027c-10.63-13.79-23.741-25.739-38.705-35.245zm64.412 88.56c-4.251-17.584-11.854-33.961-22.132-48.487l41.95-28.03c14.236 19.858 24.703 42.345 30.424 66.524l-50.242 9.993z" fill="#fff" stroke="#000" stroke-width="3"/>
<line x1="-204.21" x2="-152.88" y1="349.12" y2="349.12" fill="none" stroke="#000" stroke-width="3"/>
<line x1="-561.41" x2="-510.08" y1="349.12" y2="349.12" fill="none" stroke="#000" stroke-width="3"/>
<path d="m-280.7-65.909c-35.234 0-43.266 20.727-44.82 24.613s-5.7 5.7-11.399 5.7h-3.951c-5.303-9.445-19.107-21.763-19.107-21.763-2.587-2.588-13.412 9.298-13.437 12.025-3.916-1.014-5.54-4.058-11.952-10.47-13.861-13.861-31.09-13.213-51.039-8.55-19.949 4.664-28.24 18.136-45.598 18.136 14.638 14.638 37.048 33.939 59.588 33.939s41.711-23.317 45.339-26.944c1.769-1.769 3.595-2.671 5.006-3.136 2.072 2.93 6.11 6.739 8.984 9.612 4.016 4.016 4.663 7.514-5.959 14.509-29.921 19.704-72.671 64.381-72.671 64.381l5.052 5.052c37.437-37.437 76.169-61.401 76.169-61.401-4.3 7.383-5.7 28.24-5.7 40.935s1.814 26.944 1.814 26.944h6.217c-1.968-24.742 0-31.607 0-44.562 0-12.954 3.109-14.767 7.772-19.431 1.051-1.051 2.033-2.064 2.962-3.055 1.901 1.483 4.565 4.109 8.179 8.755 9.067 11.658 33.939 38.344 60.624 51.039l4.664-11.141s-28.628-13.342-52.593-37.307c-9.173-9.173-14.001-13.374-15.648-17.65 3.457-4.98 4.769-9.603 3.351-14.987 4.251-2.779 9.74-2.305 10.743-1.302 3.627 3.627 27.98 12.695 47.411 12.695s43.267-13.99 48.707-21.503 10.622-10.622 10.622-10.622c-10.365-2.853-24.096-14.511-59.33-14.511z" fill="#5ab532" stroke="#000" stroke-width="3"/>
<path d="m-450.23-43.11s18.999 4.145 39.38 4.145c16.149 0 22.368-3.395 28.585-3.395" fill="none" stroke="#000" stroke-width="3"/>
<path d="m-248.32-44.924s-22.54-2.85-41.193 0-26.167 5.181-26.167 5.181" fill="none" stroke="#000" stroke-width="3"/>
<path d="m-361.62 45.15c-2.569 0-8.636-5.182-15.545-5.182-6.908 0-22.453 7.426-22.453 30.917 0 23.49 16.063 37.48 34.371 37.48s40.762-19.517 40.762-40.762-16.15-26.685-25.304-26.685c-5.631 0-8.203 4.232-11.831 4.232z" fill="#e20909" stroke="#000" stroke-width="3"/>
<path d="m-431.49 40.313c-1.909-1.719-2.951-9.63-8.085-14.252-5.134-4.623-21.655-9.505-37.373 7.951s-13.142 38.602 0.463 50.852 43.351 12.771 57.566-3.017c14.216-15.788 5.854-30.637-0.949-36.762-4.183-3.768-8.926-2.345-11.622-4.772z" fill="#e20909" stroke="#000" stroke-width="3"/>
<path d="m-291.33 38.758c-1.284 2.225-8.806 4.888-12.26 10.871s-4.796 23.158 15.548 34.903c20.343 11.745 40.49 4.83 49.644-11.025 9.155-15.855 3.479-45.06-14.919-55.682s-31.185 0.644-35.762 8.571c-2.816 4.878-0.438 9.221-2.251 12.362z" fill="#e20909" stroke="#000" stroke-width="3"/>
<path d="m-657.14-124.78v458.87c0 166.31 134.31 301.13 300 301.13 165.69 0 300-134.82 300-301.13v-458.87h-600z" fill="none" stroke="#000" stroke-width="3"/>
</g>
</g>
</svg>
